X:519
%%etbk:tnset id:250,pos:2,rep:3x,ant:
%%etbk:wsite http://thesession.org/tunes/2301
%%etbk:video src:ytube,cde:yAkVrc5LjsI,desc:third tune
%%etbk:skill ?
%%etbk:pldat 2013-10-04T17:22,2013-09-26T15:36
T: Charlie Mulvihill's
Z: Piano Box Version by Martin Fleischmann
H: Created 2013-09-10 /  Last Modified 2013-10-04
R: reel
M: 4/4
L: 1/8
K: Dmaj
!5!d!4!B|: "D"!3!A!2!F FF "G"!3!G3B | "D"!4!AF FF "A"!1!E!4!GFE | "D"!1!D2 !2!F!3!A !5!d!3!fe!1!d | !4!d!2!B!1!A!2!F "A"!1!E2 dB |
"D"!3!AF FF "G"G3B | "D"AF F2 "A"EGFE | "D"!1!D2 !2!F!1!A !3!d!5!fe!3!d |1 "A"!3!dB!1!A!2!F "D"!1!D2 dB :|2 "A"dBAF "D"D!5!aag||
|:"D"!3!fffa "G"!4!g2 fg | "D"!5!afd!3!f "A"!2!e!1!B!2!B!1!B | "D"fffe dfed | dBAF "A"E2 fg 
|1 "D"!5!a!3!fff !5!bfff | !5!afdf "A"!2!e!1!B!1!B!2!e | "D"!3!fgfe !1!dfe!1!d | "A"!4!dBAF "D"Daag :|
|2 "D"!5!a3f !5!ba!3!fe | !1!d!4!fe!2!d "A"!1!BBB!2!e | "D"fgfe dfed | "A"dBAF "D"D2dB ||
